outputs/icons/editor/align_vertical_bottom_round.svg

<svg xmlns="http://www.w3.org/2000/svg" width="1200" height="1200" fill="none"><g clip-path="url(#a)"><path fill="#000" d="M1050 1100H150c-27.5 0-50-22.5-50-50s22.5-50 50-50h900c27.5 0 50 22.5 50 50s-22.5 50-50 50M425 100c-41.5 0-75 33.5-75 75v650c0 41.5 33.5 75 75 75s75-33.5 75-75V175c0-41.5-33.5-75-75-75m350 300c-41.5 0-75 33.5-75 75v350c0 41.5 33.5 75 75 75s75-33.5 75-75V475c0-41.5-33.5-75-75-75"/></g><defs><clipPath id="a"><path fill="#fff" d="M0 0h1200v1200H0z"/></clipPath></defs></svg>

<svg width="1200" height="1200" viewBox="0 0 1200 1200" fill="none" xmlns="http://www.w3.org/2000/svg"><g clip-path="url(#clip0_238_248)"><path d="M1050 1100H150C122.5 1100 100 1077.5 100 1050C100 1022.5 122.5 1000 150 1000H1050C1077.5 1000 1100 1022.5 1100 1050C1100 1077.5 1077.5 1100 1050 1100ZM425 100C383.5 100 350 133.5 350 175V825C350 866.5 383.5 900 425 900C466.5 900 500 866.5 500 825V175C500 133.5 466.5 100 425 100ZM775 400C733.5 400 700 433.5 700 475V825C700 866.5 733.5 900 775 900C816.5 900 850 866.5 850 825V475C850 433.5 816.5 400 775 400Z" fill="black"/></g><defs><clipPath id="clip0_238_248"><path width="24" fill="white" d="M0 0H1200V1200H0V0z"/></clipPath></defs></svg>
